public/icons/icon/twitter.svg

<svg width="30" height="30" viewBox="0 0 30 30" fill="none" xmlns="http://www.w3.org/2000/svg">
<path d="M20.72 4.13715C17.8194 4.13715 15.4668 6.48969 15.4668 9.39259C15.4668 9.8031 15.5142 10.2023 15.6022 10.588C11.2343 10.3681 7.36488 8.27609 4.77325 5.09801C4.32214 5.87618 4.06275 6.7784 4.06275 7.73927C4.06275 9.56176 4.99091 11.1711 6.39951 12.1128C5.53788 12.0846 4.72814 11.8489 4.0199 11.4553V11.523C4.0199 14.0684 5.82998 16.192 8.2344 16.6747C7.79231 16.7942 7.3288 16.8574 6.85062 16.8574C6.51228 16.8574 6.18185 16.8258 5.86156 16.7649C6.53033 18.8513 8.47011 20.3715 10.7696 20.4121C8.97084 21.8218 6.70513 22.662 4.24432 22.662C3.82028 22.662 3.40187 22.6372 2.99023 22.5887C5.31571 24.0808 8.07651 24.9492 11.0426 24.9492C20.7076 24.9492 25.9913 16.9442 25.9913 10.0016C25.9913 7.04254 23.8974 4.13715 20.72 4.13715Z" stroke="black" stroke-width="2" stroke-linecap="round" stroke-linejoin="round"/>
<path d="M26.393 7.13758C27.4565 7.01014 28.4681 6.72819 29.4098 6.31091L29.4075 6.3143C28.7049 7.36651 27.814 8.29016 26.7877 9.03224L25.3667 5.50455C26.5633 5.26998 27.6877 4.8324 28.7027 4.23016C28.3102 5.45719 27.4779 6.48798 26.393 7.13758Z" fill="black"/>
</svg>

<svg xmlns="http://www.w3.org/2000/svg" width="30" height="30" fill="none"><path stroke="#000" stroke-linecap="round" stroke-linejoin="round" stroke-width="2" d="M20.72 4.137a5.254 5.254 0 0 0-5.253 5.256c0 .41.047.81.135 1.195a14.919 14.919 0 0 1-10.829-5.49 5.251 5.251 0 0 0-.71 2.641c0 1.823.928 3.432 2.337 4.374a5.241 5.241 0 0 1-2.38-.658v.068a5.256 5.256 0 0 0 4.214 5.152 5.294 5.294 0 0 1-2.372.09 5.257 5.257 0 0 0 4.908 3.647 10.542 10.542 0 0 1-6.526 2.25c-.424 0-.842-.025-1.254-.073a14.858 14.858 0 0 0 8.053 2.36c9.665 0 14.948-8.005 14.948-14.947 0-2.96-2.094-5.865-5.271-5.865Z"/><path fill="#000" d="M26.393 7.138a10.52 10.52 0 0 0 3.017-.827l-.003.003a10.68 10.68 0 0 1-2.62 2.718l-1.42-3.527a10.488 10.488 0 0 0 3.336-1.275 5.268 5.268 0 0 1-2.31 2.908Z"/></svg>
